src/components/Icon/assets/flush.svg

<svg width="24" height="24" viewBox="0 0 24 24" fill="none" xmlns="http://www.w3.org/2000/svg">
<path fill-rule="evenodd" clip-rule="evenodd" d="M12.0006 7.4132L9.87858 9.5352L8.46458 8.1212L10.5866 5.9992L8.46458 3.8782L9.87858 2.4642L12.0006 4.5852L14.1216 2.4642L15.5356 3.8782L13.4146 5.9992L15.5356 8.1212L14.1216 9.5352L12.0006 7.4132ZM17.0002 20.0001V6.0001H19.0002V20.5001C19.0002 21.3271 18.3442 22.0001 17.5382 22.0001H6.46118C5.65618 22.0001 5.00018 21.3271 5.00018 20.5001V6.0001H7.00018V20.0001H17.0002Z" fill="#65676A"/>
</svg>

<svg xmlns="http://www.w3.org/2000/svg" width="24" height="24" viewBox="0 0 24 24">
    <path fill="#65676A" fill-rule="evenodd" d="M7 6v14h10V6h2v14.5c0 .827-.656 1.5-1.462 1.5H6.461c-.805 0-1.46-.673-1.46-1.5V6h2zm7.122-3.536l1.414 1.414L13.415 6l2.12 2.122-1.413 1.414L12 7.413 9.879 9.535 8.465 8.121 10.587 6 8.465 3.88l1.414-1.415L12 4.585l2.12-2.12z"/>
</svg>
